;*******************************************************
;HyperCube CAM post processor for Fusion360: Version 1.0
;Compatible with Marlin 1.1.4+
;For use with custom NXT bots
;*******************************************************

M117 Starting...
M5      ;Pen Up
G21     ;Metric Values
G90     ;Absolute Positioning
G0 F3600
G28

M117 Trace2
G1 X1.001 Y15.778 Z16 F508
G1 Z5
G1 Z0 F305
G1 X26.665 Y0.96 F508
G1 Y0.896
G1 X26.706 Y0.935
G1 X26.776 Y0.896
G1 Y1.001
G1 X28.445 Y2.565
G1 X30.128 Y4.1
G1 X31.826 Y5.602
G1 X33.539 Y7.072
G1 Y13.793
G1 X34.684 Y14.455
G1 Y16.042
G1 X35.601 Y18.159
G1 X36.403 Y18.622
G1 Y19.945
G1 X36.632 Y20.077
G1 Y21.532
G1 X36.747 Y21.731
G1 X36.861 Y21.664
G1 Y20.209
G1 X37.09 Y20.341
G1 Y19.019
G1 X37.892 Y19.482
G1 X38.808 Y18.423
G1 Y16.836
G1 X39.954 Y17.497
G1 Y12.191
G1 X40.979 Y12.953
G1 X42.008 Y13.703
G1 X43.042 Y14.441
G1 X44.078 Y15.167
G1 X44.079 Y25.477
G1 X47.251 Y28.631
G1 X50.495 Y29.181
G1 X50.494 Y19.324
G1 X51.467 Y19.905
G1 X52.442 Y20.474
G1 X53.532 Y21.096
G1 X54.618 Y21.699
G1 X54.619 Y28.346
G1 X55.306 Y28.743
G1 X57.139 Y32.018
G1 X57.14 Y32.976
G1 X57.598 Y33.876
G1 Y35.225
G1 X57.712 Y35.423
G1 X57.827 Y35.357
G1 Y34.008
G1 X58.285 Y33.637
G1 Y32.68
G1 X60.118 Y31.521
G1 X60.805 Y31.917
G1 Y24.824
G1 X61.842 Y25.296
G1 X62.875 Y25.751
G1 X63.904 Y26.189
G1 X64.929 Y26.611
G1 X64.93 Y38.811
G1 X65.847 Y39.643
G1 Y40.435
G1 X68.137 Y42.501
G1 X70.429 Y43.081
G1 Y42.289
G1 X71.346 Y42.515
G1 X71.345 Y28.901
G1 X72.217 Y29.165
G1 X73.086 Y29.417
G1 X73.951 Y29.656
G1 X74.812 Y29.882
G1 X75.669 Y30.096
G1 X76.523 Y30.298
G1 X77.373 Y30.487
G1 X78.219 Y30.663
G1 X78.22 Y50.439
G1 X26.775 Y20.735
G1 Y20.738
G1 X1 Y35.62
G1 X1.001 Y15.778
G1 Z5
G1 Z6
G1 X10.158 Y33.234
G1 Z5
G1 Z0 F305
G1 X10.372 Y33.124 F508
G1 X10.819 Y32.927
G1 X11.29 Y32.76
G1 X11.781 Y32.624
G1 X12.287 Y32.517
G1 X12.805 Y32.441
G1 X13.331 Y32.396
G1 X13.861 Y32.381
G1 X14.391 Y32.396
G1 X14.917 Y32.441
G1 X15.435 Y32.517
G1 X15.941 Y32.624
G1 X16.431 Y32.76
G1 X16.902 Y32.927
G1 X17.35 Y33.124
G1 X17.563 Y33.234
G1 X17.77 Y33.352
G1 X17.966 Y33.476
G1 X18.149 Y33.604
G1 X18.32 Y33.736
G1 X18.478 Y33.873
G1 X18.623 Y34.012
G1 X18.756 Y34.155
G1 X18.876 Y34.301
G1 X18.984 Y34.45
G1 X19.079 Y34.6
G1 X19.161 Y34.753
G1 X19.23 Y34.908
G1 X19.287 Y35.064
G1 X19.332 Y35.222
G1 X19.363 Y35.38
G1 X19.382 Y35.539
G1 X19.389 Y35.698
G1 Y38.766
G1 X19.303 Y38.55
G1 X19.191 Y38.339
G1 X19.052 Y38.132
G1 X18.887 Y37.931
G1 X18.695 Y37.737
G1 X18.476 Y37.549
G1 X18.23 Y37.37
G1 X17.958 Y37.2
G1 X17.755 Y37.09
G1 X17.545 Y36.986
G1 X17.327 Y36.89
G1 X17.102 Y36.802
G1 X16.635 Y36.647
G1 X16.146 Y36.522
G1 X15.641 Y36.427
G1 X15.122 Y36.361
G1 X14.594 Y36.325
G1 X14.06 Y36.319
G1 X13.525 Y36.342
G1 X12.993 Y36.394
G1 X12.467 Y36.476
G1 X11.951 Y36.587
G1 X11.451 Y36.727
G1 X10.968 Y36.896
G1 X10.508 Y37.094
G1 X10.288 Y37.204
G1 X10.075 Y37.322
G1 X9.883 Y37.438
G1 X9.702 Y37.557
G1 X9.532 Y37.681
G1 X9.374 Y37.807
G1 X9.227 Y37.936
G1 X9.091 Y38.068
G1 X8.966 Y38.202
G1 X8.852 Y38.339
G1 X8.75 Y38.477
G1 X8.659 Y38.618
G1 X8.579 Y38.759
G1 X8.51 Y38.902
G1 X8.453 Y39.046
G1 X8.407 Y39.191
G1 X8.372 Y39.336
G1 X8.349 Y39.482
G1 X8.333 Y39.228
G1 Y35.698
G1 X8.339 Y35.539
G1 X8.358 Y35.38
G1 X8.39 Y35.222
G1 X8.434 Y35.064
G1 X8.491 Y34.908
G1 X8.561 Y34.753
G1 X8.643 Y34.6
G1 X8.738 Y34.45
G1 X8.845 Y34.301
G1 X8.965 Y34.155
G1 X9.098 Y34.012
G1 X9.244 Y33.873
G1 X9.402 Y33.736
G1 X9.572 Y33.604
G1 X9.756 Y33.476
G1 X9.952 Y33.352
G1 X10.158 Y33.234
G1 Z5
G1 Z6
G1 X21.142 Y31.018
G1 Z5
G1 Z0 F305
G1 Y28.269 F508
G1 X21.149 Y28.109
G1 X21.168 Y27.948
G1 X21.199 Y27.789
G1 X21.244 Y27.63
G1 X21.301 Y27.472
G1 X21.37 Y27.316
G1 X21.452 Y27.162
G1 X21.547 Y27.01
G1 X21.655 Y26.86
G1 X21.775 Y26.713
G1 X21.908 Y26.568
G1 X22.053 Y26.427
G1 X22.211 Y26.29
G1 X22.382 Y26.157
G1 X22.565 Y26.027
G1 X22.761 Y25.902
G1 X22.968 Y25.784
G1 X23.181 Y25.673
G1 X23.629 Y25.473
G1 X24.1 Y25.305
G1 X24.59 Y25.167
G1 X25.096 Y25.06
G1 X25.615 Y24.983
G1 X26.14 Y24.937
G1 X26.67 Y24.922
G1 X27.2 Y24.937
G1 X27.726 Y24.983
G1 X28.244 Y25.06
G1 X28.75 Y25.167
G1 X29.241 Y25.305
G1 X29.712 Y25.473
G1 X30.159 Y25.673
G1 X30.373 Y25.784
G1 X30.579 Y25.902
G1 X30.775 Y26.027
G1 X30.958 Y26.157
G1 X31.129 Y26.29
G1 X31.287 Y26.427
G1 X31.433 Y26.568
G1 X31.566 Y26.713
G1 X31.686 Y26.86
G1 X31.793 Y27.01
G1 X31.888 Y27.162
G1 X31.97 Y27.316
G1 X32.04 Y27.472
G1 X32.097 Y27.63
G1 X32.141 Y27.789
G1 X32.173 Y27.948
G1 X32.192 Y28.109
G1 X32.198 Y28.269
G1 Y31.017
G1 X32.09 Y30.821
G1 X31.961 Y30.628
G1 X31.81 Y30.439
G1 X31.638 Y30.254
G1 X31.445 Y30.075
G1 X31.23 Y29.902
G1 X30.994 Y29.735
G1 X30.737 Y29.575
G1 X30.523 Y29.456
G1 X30.3 Y29.345
G1 X30.071 Y29.242
G1 X29.835 Y29.146
G1 X29.345 Y28.977
G1 X28.835 Y28.839
G1 X28.308 Y28.732
G1 X27.769 Y28.655
G1 X27.222 Y28.609
G1 X26.67 Y28.594
G1 X26.119 Y28.609
G1 X25.572 Y28.655
G1 X25.033 Y28.732
G1 X24.506 Y28.839
G1 X23.996 Y28.977
G1 X23.506 Y29.146
G1 X23.27 Y29.242
G1 X23.041 Y29.345
G1 X22.818 Y29.456
G1 X22.604 Y29.575
G1 X22.347 Y29.735
G1 X22.111 Y29.902
G1 X21.896 Y30.075
G1 X21.703 Y30.255
G1 X21.531 Y30.439
G1 X21.38 Y30.628
G1 X21.251 Y30.822
G1 X21.142 Y31.018
G1 Z5
G1 Z6
G1 X34.952 Y33.994
G1 Z5
G1 Z0 F305
G1 X35.097 Y33.853 F508
G1 X35.255 Y33.715
G1 X35.426 Y33.582
G1 X35.61 Y33.453
G1 X35.806 Y33.328
G1 X36.012 Y33.209
G1 X36.225 Y33.098
G1 X36.673 Y32.899
G1 X37.144 Y32.73
G1 X37.634 Y32.593
G1 X38.14 Y32.485
G1 X38.659 Y32.409
G1 X39.185 Y32.363
G1 X39.714 Y32.347
G1 X40.244 Y32.363
G1 X40.77 Y32.409
G1 X41.288 Y32.485
G1 X41.794 Y32.593
G1 X42.285 Y32.73
G1 X42.756 Y32.899
G1 X43.203 Y33.098
G1 X43.417 Y33.209
G1 X43.623 Y33.328
G1 X43.819 Y33.453
G1 X44.003 Y33.582
G1 X44.173 Y33.715
G1 X44.332 Y33.853
G1 X44.477 Y33.994
G1 X44.61 Y34.138
G1 X44.73 Y34.285
G1 X44.838 Y34.435
G1 X44.932 Y34.587
G1 X45.015 Y34.741
G1 X45.084 Y34.897
G1 X45.141 Y35.055
G1 X45.185 Y35.214
G1 X45.217 Y35.373
G1 X45.236 Y35.534
G1 X45.242 Y35.694
G1 Y38.892
G1 X45.152 Y38.659
G1 X45.032 Y38.429
G1 X44.882 Y38.204
G1 X44.703 Y37.985
G1 X44.495 Y37.773
G1 X44.257 Y37.568
G1 X43.989 Y37.372
G1 X43.693 Y37.185
G1 X43.483 Y37.069
G1 X43.265 Y36.96
G1 X42.81 Y36.765
G1 X42.331 Y36.6
G1 X41.832 Y36.465
G1 X41.316 Y36.36
G1 X40.789 Y36.285
G1 X40.254 Y36.24
G1 X39.715 Y36.225
G1 X39.175 Y36.24
G1 X38.64 Y36.285
G1 X38.113 Y36.36
G1 X37.597 Y36.465
G1 X37.098 Y36.6
G1 X36.619 Y36.765
G1 X36.164 Y36.96
G1 X35.946 Y37.069
G1 X35.736 Y37.185
G1 X35.439 Y37.372
G1 X35.172 Y37.568
G1 X34.934 Y37.773
G1 X34.726 Y37.986
G1 X34.547 Y38.205
G1 X34.397 Y38.43
G1 X34.277 Y38.659
G1 X34.187 Y38.892
G1 Y35.694
G1 X34.193 Y35.534
G1 X34.212 Y35.373
G1 X34.243 Y35.214
G1 X34.288 Y35.055
G1 X34.345 Y34.897
G1 X34.414 Y34.741
G1 X34.496 Y34.587
G1 X34.591 Y34.435
G1 X34.699 Y34.285
G1 X34.819 Y34.138
G1 X34.952 Y33.994
G1 Z5
G1 Z6
G1 X30.974 Y40.902
G1 Z5
G1 Z0 F305
G1 X31.157 Y41.03 F508
G1 X31.328 Y41.162
G1 X31.486 Y41.298
G1 X31.632 Y41.438
G1 X31.765 Y41.581
G1 X31.885 Y41.727
G1 X31.992 Y41.875
G1 X32.087 Y42.026
G1 X32.169 Y42.179
G1 X32.239 Y42.333
G1 X32.296 Y42.49
G1 X32.34 Y42.647
G1 X32.372 Y42.805
G1 X32.391 Y42.964
G1 X32.397 Y43.123
G1 Y46.653
G1 X32.385 Y46.874
G1 X32.36 Y46.731
G1 X32.324 Y46.59
G1 X32.277 Y46.448
G1 X32.22 Y46.308
G1 X32.152 Y46.169
G1 X32.073 Y46.03
G1 X31.983 Y45.894
G1 X31.882 Y45.759
G1 X31.771 Y45.626
G1 X31.649 Y45.496
G1 X31.515 Y45.368
G1 X31.372 Y45.242
G1 X31.217 Y45.119
G1 X31.052 Y45
G1 X30.876 Y44.883
G1 X30.689 Y44.771
G1 X30.477 Y44.654
G1 X30.259 Y44.545
G1 X29.801 Y44.348
G1 X29.322 Y44.181
G1 X28.823 Y44.043
G1 X28.31 Y43.934
G1 X27.785 Y43.854
G1 X27.255 Y43.803
G1 X26.721 Y43.782
G1 X26.188 Y43.79
G1 X25.66 Y43.828
G1 X25.141 Y43.895
G1 X24.635 Y43.992
G1 X24.146 Y44.118
G1 X23.678 Y44.274
G1 X23.235 Y44.46
G1 X23.024 Y44.564
G1 X22.82 Y44.675
G1 X22.53 Y44.857
G1 X22.27 Y45.049
G1 X22.04 Y45.25
G1 X21.84 Y45.459
G1 X21.67 Y45.675
G1 X21.531 Y45.896
G1 X21.421 Y46.123
G1 X21.341 Y46.354
G1 Y43.123
G1 X21.348 Y42.964
G1 X21.367 Y42.805
G1 X21.398 Y42.647
G1 X21.443 Y42.49
G1 X21.5 Y42.333
G1 X21.569 Y42.179
G1 X21.651 Y42.026
G1 X21.746 Y41.875
G1 X21.854 Y41.727
G1 X21.974 Y41.581
G1 X22.107 Y41.438
G1 X22.252 Y41.298
G1 X22.41 Y41.162
G1 X22.581 Y41.03
G1 X22.764 Y40.902
G1 X22.96 Y40.778
G1 X23.167 Y40.66
G1 X23.38 Y40.55
G1 X23.828 Y40.353
G1 X24.299 Y40.186
G1 X24.789 Y40.049
G1 X25.295 Y39.943
G1 X25.813 Y39.867
G1 X26.339 Y39.822
G1 X26.869 Y39.806
G1 X27.399 Y39.822
G1 X27.925 Y39.867
G1 X28.443 Y39.943
G1 X28.949 Y40.049
G1 X29.44 Y40.186
G1 X29.911 Y40.353
G1 X30.358 Y40.55
G1 X30.572 Y40.66
G1 X30.778 Y40.778
G1 X30.974 Y40.902
G1 Z5
G1 Z6
G1 X34.592 Y49.266
G1 Z5
G1 Z0 F305
G1 X34.699 Y49.118 F508
G1 X34.819 Y48.972
G1 X34.952 Y48.829
G1 X35.098 Y48.689
G1 X35.256 Y48.553
G1 X35.427 Y48.421
G1 X35.61 Y48.293
G1 X35.806 Y48.169
G1 X36.012 Y48.052
G1 X36.226 Y47.942
G1 X36.673 Y47.744
G1 X37.144 Y47.577
G1 X37.635 Y47.441
G1 X38.141 Y47.334
G1 X38.659 Y47.258
G1 X39.185 Y47.213
G1 X39.715 Y47.198
G1 X40.245 Y47.213
G1 X40.771 Y47.258
G1 X41.289 Y47.334
G1 X41.795 Y47.441
G1 X42.286 Y47.577
G1 X42.757 Y47.744
G1 X43.204 Y47.942
G1 X43.417 Y48.052
G1 X43.624 Y48.169
G1 X43.82 Y48.293
G1 X44.003 Y48.421
G1 X44.174 Y48.553
G1 X44.332 Y48.689
G1 X44.478 Y48.829
G1 X44.61 Y48.972
G1 X44.73 Y49.118
G1 X44.838 Y49.266
G1 X44.933 Y49.417
G1 X45.015 Y49.57
G1 X45.085 Y49.725
G1 X45.142 Y49.881
G1 X45.186 Y50.038
G1 X45.217 Y50.196
G1 X45.236 Y50.355
G1 X45.243 Y50.514
G1 Y53.872
G1 X45.181 Y53.602
G1 X45.08 Y53.335
G1 X45.014 Y53.203
G1 X44.939 Y53.073
G1 X44.854 Y52.945
G1 X44.758 Y52.818
G1 X44.653 Y52.693
G1 X44.538 Y52.57
G1 X44.413 Y52.45
G1 X44.278 Y52.332
G1 X44.133 Y52.217
G1 X43.978 Y52.105
G1 X43.813 Y51.996
G1 X43.639 Y51.891
G1 X43.432 Y51.777
G1 X43.217 Y51.671
G1 X42.768 Y51.48
G1 X42.295 Y51.319
G1 X41.803 Y51.187
G1 X41.294 Y51.084
G1 X40.774 Y51.011
G1 X40.246 Y50.967
G1 X39.714 Y50.952
G1 X39.182 Y50.967
G1 X38.654 Y51.011
G1 X38.134 Y51.084
G1 X37.626 Y51.187
G1 X37.133 Y51.319
G1 X36.66 Y51.48
G1 X36.211 Y51.671
G1 X35.997 Y51.777
G1 X35.79 Y51.891
G1 X35.616 Y51.996
G1 X35.451 Y52.105
G1 X35.297 Y52.216
G1 X35.152 Y52.331
G1 X35.018 Y52.448
G1 X34.893 Y52.568
G1 X34.778 Y52.69
G1 X34.673 Y52.815
G1 X34.577 Y52.941
G1 X34.492 Y53.069
G1 X34.351 Y53.33
G1 X34.249 Y53.596
G1 X34.187 Y53.865
G1 Y50.514
G1 X34.193 Y50.355
G1 X34.212 Y50.196
G1 X34.244 Y50.038
G1 X34.288 Y49.881
G1 X34.345 Y49.725
G1 X34.415 Y49.57
G1 X34.497 Y49.417
G1 X34.592 Y49.266
G1 Z5
G1 Z6
G1 X47.019 Y46.092
G1 Z5
G1 Z0 F305
G1 Y43.085 F508
G1 X47.026 Y42.925
G1 X47.045 Y42.764
G1 X47.076 Y42.605
G1 X47.121 Y42.446
G1 X47.178 Y42.289
G1 X47.247 Y42.132
G1 X47.329 Y41.978
G1 X47.424 Y41.826
G1 X47.532 Y41.676
G1 X47.652 Y41.529
G1 X47.785 Y41.385
G1 X47.93 Y41.244
G1 X48.088 Y41.107
G1 X48.259 Y40.973
G1 X48.442 Y40.844
G1 X48.638 Y40.719
G1 X48.845 Y40.6
G1 X49.058 Y40.489
G1 X49.506 Y40.29
G1 X49.977 Y40.122
G1 X50.467 Y39.984
G1 X50.973 Y39.877
G1 X51.491 Y39.8
G1 X52.017 Y39.754
G1 X52.547 Y39.739
G1 X53.077 Y39.754
G1 X53.603 Y39.8
G1 X54.121 Y39.877
G1 X54.627 Y39.984
G1 X55.118 Y40.122
G1 X55.589 Y40.29
G1 X56.036 Y40.489
G1 X56.25 Y40.6
G1 X56.456 Y40.719
G1 X56.652 Y40.844
G1 X56.835 Y40.973
G1 X57.006 Y41.107
G1 X57.164 Y41.244
G1 X57.31 Y41.385
G1 X57.443 Y41.529
G1 X57.563 Y41.676
G1 X57.67 Y41.826
G1 X57.765 Y41.978
G1 X57.847 Y42.132
G1 X57.917 Y42.289
G1 X57.974 Y42.446
G1 X58.018 Y42.605
G1 X58.05 Y42.764
G1 X58.069 Y42.925
G1 X58.075 Y43.085
G1 Y46.089
G1 X57.98 Y45.863
G1 X57.858 Y45.641
G1 X57.708 Y45.423
G1 X57.53 Y45.211
G1 X57.324 Y45.005
G1 X57.091 Y44.806
G1 X56.829 Y44.616
G1 X56.54 Y44.435
G1 X56.33 Y44.318
G1 X56.112 Y44.209
G1 X55.655 Y44.013
G1 X55.174 Y43.848
G1 X54.673 Y43.713
G1 X54.156 Y43.607
G1 X53.627 Y43.532
G1 X53.09 Y43.487
G1 X52.549 Y43.472
G1 X52.008 Y43.487
G1 X51.471 Y43.533
G1 X50.941 Y43.608
G1 X50.424 Y43.713
G1 X49.923 Y43.849
G1 X49.442 Y44.014
G1 X48.985 Y44.21
G1 X48.767 Y44.319
G1 X48.556 Y44.436
G1 X48.267 Y44.618
G1 X48.005 Y44.808
G1 X47.772 Y45.007
G1 X47.566 Y45.213
G1 X47.387 Y45.426
G1 X47.237 Y45.643
G1 X47.114 Y45.866
G1 X47.019 Y46.092
G1 Z5
G1 Z6
G1 X50.973 Y54.76
G1 Z5
G1 Z0 F305
G1 X51.491 Y54.684 F508
G1 X52.017 Y54.638
G1 X52.547 Y54.623
G1 X53.077 Y54.638
G1 X53.603 Y54.684
G1 X54.121 Y54.76
G1 X54.627 Y54.866
G1 X55.118 Y55.003
G1 X55.589 Y55.17
G1 X56.036 Y55.367
G1 X56.25 Y55.477
G1 X56.456 Y55.595
G1 X56.652 Y55.718
G1 X56.835 Y55.847
G1 X57.006 Y55.979
G1 X57.164 Y56.115
G1 X57.31 Y56.255
G1 X57.443 Y56.397
G1 X57.563 Y56.543
G1 X57.67 Y56.692
G1 X57.765 Y56.843
G1 X57.847 Y56.995
G1 X57.917 Y57.15
G1 X57.974 Y57.306
G1 X58.018 Y57.464
G1 X58.05 Y57.622
G1 X58.069 Y57.781
G1 X58.075 Y57.94
G1 Y60.999
G1 X57.977 Y60.781
G1 X57.853 Y60.567
G1 X57.702 Y60.356
G1 X57.525 Y60.152
G1 X57.321 Y59.953
G1 X57.092 Y59.761
G1 X56.835 Y59.577
G1 X56.553 Y59.402
G1 X56.341 Y59.286
G1 X56.123 Y59.177
G1 X55.664 Y58.983
G1 X55.182 Y58.818
G1 X54.679 Y58.683
G1 X54.16 Y58.579
G1 X53.629 Y58.504
G1 X53.09 Y58.459
G1 X52.548 Y58.444
G1 X52.005 Y58.459
G1 X51.466 Y58.504
G1 X50.935 Y58.579
G1 X50.416 Y58.683
G1 X49.913 Y58.818
G1 X49.431 Y58.983
G1 X48.972 Y59.177
G1 X48.754 Y59.286
G1 X48.542 Y59.402
G1 X48.259 Y59.577
G1 X48.003 Y59.761
G1 X47.773 Y59.953
G1 X47.569 Y60.152
G1 X47.392 Y60.357
G1 X47.242 Y60.567
G1 X47.117 Y60.782
G1 X47.019 Y61
G1 Y57.94
G1 X47.026 Y57.781
G1 X47.045 Y57.622
G1 X47.076 Y57.464
G1 X47.121 Y57.306
G1 X47.178 Y57.15
G1 X47.247 Y56.995
G1 X47.329 Y56.843
G1 X47.424 Y56.692
G1 X47.532 Y56.543
G1 X47.652 Y56.397
G1 X47.785 Y56.255
G1 X47.93 Y56.115
G1 X48.088 Y55.979
G1 X48.259 Y55.847
G1 X48.442 Y55.718
G1 X48.638 Y55.595
G1 X48.845 Y55.477
G1 X49.058 Y55.367
G1 X49.506 Y55.17
G1 X49.977 Y55.003
G1 X50.467 Y54.866
G1 X50.973 Y54.76
G1 Z5
G1 Z6
G1 X59.852 Y53.709
G1 Z5
G1 Z0 F305
G1 Y50.511 F508
G1 X59.858 Y50.351
G1 X59.877 Y50.19
G1 X59.909 Y50.031
G1 X59.953 Y49.872
G1 X60.01 Y49.714
G1 X60.079 Y49.558
G1 X60.161 Y49.404
G1 X60.256 Y49.252
G1 X60.364 Y49.102
G1 X60.484 Y48.955
G1 X60.617 Y48.811
G1 X60.762 Y48.669
G1 X60.921 Y48.532
G1 X61.091 Y48.399
G1 X61.275 Y48.269
G1 X61.471 Y48.145
G1 X61.677 Y48.026
G1 X61.891 Y47.915
G1 X62.338 Y47.716
G1 X62.809 Y47.547
G1 X63.299 Y47.409
G1 X63.806 Y47.302
G1 X64.324 Y47.225
G1 X64.85 Y47.18
G1 X65.379 Y47.164
G1 X65.909 Y47.18
G1 X66.435 Y47.225
G1 X66.953 Y47.302
G1 X67.46 Y47.409
G1 X67.95 Y47.547
G1 X68.421 Y47.716
G1 X68.868 Y47.915
G1 X69.082 Y48.026
G1 X69.288 Y48.145
G1 X69.484 Y48.269
G1 X69.668 Y48.399
G1 X69.839 Y48.532
G1 X69.997 Y48.669
G1 X70.142 Y48.811
G1 X70.275 Y48.955
G1 X70.395 Y49.102
G1 X70.503 Y49.252
G1 X70.597 Y49.404
G1 X70.68 Y49.558
G1 X70.749 Y49.714
G1 X70.806 Y49.872
G1 X70.85 Y50.031
G1 X70.882 Y50.19
G1 X70.901 Y50.351
G1 X70.907 Y50.511
G1 Y53.708
G1 X70.817 Y53.475
G1 X70.697 Y53.245
G1 X70.547 Y53.021
G1 X70.368 Y52.801
G1 X70.16 Y52.589
G1 X69.922 Y52.384
G1 X69.654 Y52.188
G1 X69.358 Y52.001
G1 X69.148 Y51.885
G1 X68.93 Y51.776
G1 X68.475 Y51.581
G1 X67.996 Y51.416
G1 X67.497 Y51.281
G1 X66.981 Y51.176
G1 X66.454 Y51.101
G1 X65.919 Y51.056
G1 X65.38 Y51.041
G1 X64.84 Y51.056
G1 X64.305 Y51.101
G1 X63.778 Y51.176
G1 X63.263 Y51.281
G1 X62.763 Y51.416
G1 X62.284 Y51.581
G1 X61.829 Y51.776
G1 X61.611 Y51.885
G1 X61.402 Y52.001
G1 X61.105 Y52.188
G1 X60.837 Y52.384
G1 X60.599 Y52.589
G1 X60.391 Y52.802
G1 X60.212 Y53.021
G1 X60.062 Y53.246
G1 X59.942 Y53.476
G1 X59.852 Y53.709
G1 Z5
G1 Z16
G17

M5     ;Pen up
G0 X0 Y0 F3600
M117 Finished :)
